Origami/22x22/apps/gpk-log.svg

<svg width="22" height="22" version="1" xmlns="http://www.w3.org/2000/svg">
 <g transform="translate(0,-1)">
  <path d="m2 1.5c-0.554 0-1 0.446-1 1v8.5h20v-8.5c0-0.554-0.446-1-1-1z" style="opacity:.05"/>
  <rect transform="matrix(0,-1,-1,0,0,0)" x="-21" y="-21" width="20" height="20" rx="1" ry="1" style="fill:#fabd7f"/>
  <path d="M 9.8571,4 C 9.5406,4 8.9899,4.2403 9,4.5385 V 13 H 7 l 4,5 4,-5 H 13 V 4.5385 C 13,4.2402 12.459,4 12.143,4 Z" style="fill:#3f3f3f"/>
  <path d="m1 2.5v-0.5c0-0.554 0.446-1 1-1h18c0.554 0 1 0.446 1 1v0.5c0-0.554-0.446-1-1-1h-18c-0.554 0-1 0.446-1 1z" style="fill:#ffffff;opacity:.1"/>
  <path d="m1 20v0.5c0 0.554 0.446 1 1 1h18c0.554 0 1-0.446 1-1v-0.5c0 0.554-0.446 1-1 1h-18c-0.554 0-1-0.446-1-1z" style="opacity:.2"/>
 </g>
 <rect transform="matrix(0,-1,-1,0,0,0)" x="-21.5" y="-22" width="10" height="10" rx=".536" ry=".536" style="opacity:.2"/>
 <rect transform="matrix(0,-1,-1,0,0,0)" x="-21" y="-22" width="10" height="10" rx=".536" ry=".536" style="fill:#cccccc"/>
 <path d="m13 12v2h8v-2zm0 3v2h8v-2zm0 3v2h8v-2z" style="fill:#3f3f3f"/>
</svg>

<svg xmlns="http://www.w3.org/2000/svg" width="22" height="22" version="1">
 <g transform="translate(0,-1)">
  <path style="opacity:0.05" d="m 2,1.5 c -0.554,0 -1,0.446 -1,1 V 11 H 21 V 2.5 c 0,-0.554 -0.446,-1 -1,-1 z"/>
  <rect style="fill:#fabd7f" width="20" height="20" x="-21" y="-21" rx="1" ry="1" transform="matrix(0,-1,-1,0,0,0)"/>
  <path style="fill:#3f3f3f" d="M 9.8571,4 C 9.5406,4 8.9899,4.2403 9,4.5385 V 13 H 7 l 4,5 4,-5 H 13 V 4.5385 C 13,4.2402 12.459,4 12.143,4 Z"/>
  <path style="opacity:0.1;fill:#ffffff" d="M 1,2.5 V 2 C 1,1.446 1.446,1 2,1 h 18 c 0.554,0 1,0.446 1,1 v 0.5 c 0,-0.554 -0.446,-1 -1,-1 H 2 c -0.554,0 -1,0.446 -1,1 z"/>
  <path style="opacity:0.2" d="m 1,20 v 0.5 c 0,0.554 0.446,1 1,1 h 18 c 0.554,0 1,-0.446 1,-1 V 20 c 0,0.554 -0.446,1 -1,1 H 2 C 1.446,21 1,20.554 1,20 Z"/>
 </g>
 <rect style="opacity:0.2" width="10" height="10" x="-21.5" y="-22" rx=".536" ry=".536" transform="matrix(0,-1,-1,0,0,0)"/>
 <rect style="fill:#cccccc" width="10" height="10" x="-21" y="-22" rx=".536" ry=".536" transform="matrix(0,-1,-1,0,0,0)"/>
 <path style="fill:#3f3f3f" d="m 13,12 v 2 h 8 v -2 z m 0,3 v 2 h 8 v -2 z m 0,3 v 2 h 8 v -2 z"/>
</svg>
